source/img/icons/snowflake.svg

<svg width="32" height="32" viewBox="0 0 32 32" fill="none" xmlns="http://www.w3.org/2000/svg">
<path d="M16.0041 28C15.7766 28 15.5584 27.921 15.3976 27.7803C15.2367 27.6397 15.1464 27.4489 15.1464 27.25V25.3105L14.0382 26.281C13.8772 26.4216 13.6588 26.5006 13.4312 26.5004C13.2036 26.5003 12.9854 26.4211 12.8246 26.2803C12.6638 26.1394 12.5735 25.9485 12.5737 25.7495C12.5738 25.5504 12.6644 25.3596 12.8255 25.219L15.1464 23.1895V17.299L9.31405 20.2435L8.46322 23.0185C8.40408 23.2106 8.26007 23.3744 8.06286 23.4737C7.86566 23.573 7.63143 23.5997 7.41169 23.548C7.19195 23.4963 7.0047 23.3704 6.89114 23.1979C6.77758 23.0255 6.74701 22.8206 6.80616 22.6285L7.2127 21.3055L5.29147 22.2745C5.09458 22.3724 4.8614 22.3982 4.64282 22.3463C4.42425 22.2944 4.23802 22.169 4.12477 21.9975C4.01152 21.826 3.98045 21.6223 4.03834 21.4308C4.09624 21.2393 4.23839 21.0757 4.43377 20.9755L6.35501 20.0065L4.83861 19.651C4.7298 19.6254 4.62783 19.5813 4.53852 19.5212C4.4492 19.4612 4.37429 19.3863 4.31806 19.3009C4.26183 19.2155 4.22539 19.1213 4.2108 19.0236C4.19622 18.9259 4.20379 18.8266 4.23307 18.7315C4.26236 18.6364 4.31279 18.5472 4.38148 18.4691C4.45017 18.391 4.53579 18.3255 4.63343 18.2763C4.73107 18.2271 4.83884 18.1953 4.95057 18.1825C5.0623 18.1698 5.1758 18.1764 5.28461 18.202L8.45464 18.9445L14.2887 16L8.45636 13.0555L5.28289 13.798C5.06458 13.8456 4.83363 13.8162 4.63983 13.7163C4.44602 13.6164 4.30488 13.4539 4.24682 13.2638C4.18877 13.0737 4.21845 12.8713 4.32947 12.7002C4.44049 12.5291 4.62395 12.4029 4.84032 12.349L6.35501 11.9935L4.43377 11.0245C4.33544 10.9756 4.24914 10.9102 4.17984 10.832C4.11054 10.7539 4.0596 10.6645 4.02996 10.569C4.00033 10.4736 3.99258 10.3739 4.00715 10.2758C4.02173 10.1778 4.05836 10.0832 4.11491 9.9975C4.17147 9.91185 4.24685 9.83682 4.3367 9.77674C4.42655 9.71665 4.52911 9.67271 4.63847 9.64743C4.74782 9.62214 4.86182 9.61603 4.97389 9.62943C5.08596 9.64283 5.19389 9.67548 5.29147 9.7255L7.2127 10.6945L6.80616 9.37C6.77494 9.27427 6.76584 9.17406 6.77937 9.07522C6.79291 8.97638 6.82881 8.88088 6.88498 8.79429C6.94116 8.70771 7.01648 8.63177 7.10656 8.5709C7.19664 8.51004 7.29968 8.46546 7.40967 8.43977C7.51966 8.41409 7.63439 8.4078 7.74718 8.42129C7.85997 8.43478 7.96857 8.46776 8.06663 8.51832C8.16469 8.56889 8.25027 8.63602 8.31836 8.71579C8.38645 8.79557 8.43569 8.88641 8.46322 8.983L9.31234 11.7565L15.1464 14.701V8.8105L12.8255 6.781C12.7457 6.71137 12.6824 6.62868 12.6392 6.53766C12.596 6.44664 12.5738 6.34908 12.5737 6.25053C12.5736 6.15198 12.5957 6.05439 12.6388 5.96332C12.6818 5.87225 12.745 5.78948 12.8246 5.71975C12.9042 5.65002 12.9988 5.59468 13.1029 5.55691C13.207 5.51913 13.3185 5.49965 13.4312 5.49958C13.5439 5.49951 13.6555 5.51885 13.7597 5.5565C13.8638 5.59415 13.9585 5.64937 14.0382 5.719L15.1464 6.6895V4.75C15.1464 4.55109 15.2367 4.36032 15.3976 4.21967C15.5584 4.07902 15.7766 4 16.0041 4C16.2315 4 16.4497 4.07902 16.6105 4.21967C16.7714 4.36032 16.8618 4.55109 16.8618 4.75V6.6895L17.9716 5.719C18.1327 5.57837 18.351 5.49944 18.5786 5.49958C18.8062 5.49972 19.0244 5.57892 19.1853 5.71975C19.3461 5.86058 19.4363 6.05151 19.4362 6.25053C19.436 6.44955 19.3455 6.64037 19.1844 6.781L16.8618 8.8105V14.701L22.6941 11.7565L23.5449 8.9815C23.6041 8.78935 23.7481 8.62562 23.9453 8.52632C24.1425 8.42701 24.3767 8.40028 24.5964 8.452C24.8162 8.50372 25.0034 8.62965 25.117 8.80209C25.2306 8.97453 25.2611 9.17935 25.202 9.3715L24.7971 10.6945L26.7184 9.7255C26.9153 9.62761 27.1485 9.6018 27.367 9.65369C27.5856 9.70558 27.7718 9.83096 27.8851 10.0025C27.9983 10.174 28.0294 10.3777 27.9715 10.5692C27.9136 10.7607 27.7715 10.9243 27.5761 11.0245L25.6548 11.9935L27.1695 12.349C27.3893 12.4007 27.5765 12.5266 27.6901 12.6991C27.8036 12.8715 27.8342 13.0764 27.7751 13.2685C27.7159 13.4606 27.5719 13.6244 27.3747 13.7237C27.1775 13.823 26.9433 13.8497 26.7235 13.798L23.5535 13.0555L17.7195 16L23.5518 18.9445L26.7235 18.202C26.9433 18.1505 27.1774 18.1774 27.3745 18.2768C27.5715 18.3763 27.7153 18.5401 27.7742 18.7323C27.8331 18.9244 27.8023 19.1291 27.6886 19.3014C27.5749 19.4737 27.3876 19.5995 27.1678 19.651L25.6531 20.0065L27.5744 20.9755C27.7698 21.0757 27.9119 21.2393 27.9698 21.4308C28.0277 21.6223 27.9966 21.826 27.8834 21.9975C27.7701 22.169 27.5839 22.2944 27.3653 22.3463C27.1467 22.3982 26.9136 22.3724 26.7167 22.2745L24.7954 21.3055L25.2003 22.63C25.2315 22.7257 25.2406 22.8259 25.227 22.9248C25.2135 23.0236 25.1776 23.1191 25.1214 23.2057C25.0653 23.2923 24.9899 23.3682 24.8999 23.4291C24.8098 23.49 24.7067 23.5345 24.5968 23.5602C24.4868 23.5859 24.372 23.5922 24.2592 23.5787C24.1464 23.5652 24.0379 23.5322 23.9398 23.4817C23.8417 23.4311 23.7562 23.364 23.6881 23.2842C23.62 23.2044 23.5707 23.1136 23.5432 23.017L22.6941 20.2435L16.8618 17.299V23.1895L19.1827 25.219C19.3437 25.3596 19.4343 25.5504 19.4345 25.7495C19.4346 25.9485 19.3444 26.1394 19.1835 26.2803C19.0227 26.4211 18.8045 26.5003 18.5769 26.5004C18.3493 26.5006 18.131 26.4216 17.9699 26.281L16.86 25.3105V27.25C16.86 27.4489 16.7697 27.6397 16.6088 27.7803C16.448 27.921 16.2298 28 16.0024 28H16.0041Z" fill="#0F805D"/>
</svg>

<svg xmlns="http://www.w3.org/2000/svg" width="32" height="32" fill="none"><path fill="#0F805D" d="M16 28a1 1 0 0 1-.6-.2.7.7 0 0 1-.3-.6v-1.9l-1 1a1 1 0 0 1-.7.2 1 1 0 0 1-.6-.2.7.7 0 0 1-.2-.6c0-.1 0-.3.2-.5l2.3-2v-5.9l-5.8 3-.8 2.7-.4.5a1 1 0 0 1-.7 0 .9.9 0 0 1-.5-.3.7.7 0 0 1 0-.6l.3-1.3-2 1a1 1 0 0 1-.6 0 .9.9 0 0 1-.5-.3.7.7 0 0 1 0-.6c0-.2.1-.3.3-.4l2-1-1.6-.3a1 1 0 0 1-.3-.2l-.2-.2v-.8l.3-.2a1 1 0 0 1 .7-.1l3.2.7 5.8-2.9-5.8-3-3.2.8a1 1 0 0 1-.7 0 .8.8 0 0 1-.4-.5l.1-.6.5-.4 1.6-.3-2-1a.8.8 0 0 1-.2-.2l-.2-.2a.7.7 0 0 1 .1-.6l.2-.2.3-.2a1 1 0 0 1 .7.1l2 1-.5-1.3a.7.7 0 0 1 0-.6l.3-.2.3-.2a1 1 0 0 1 .7.1l.2.2.2.3.8 2.8 5.8 2.9V8.8l-2.3-2-.2-.3a.7.7 0 0 1 0-.5l.2-.3.3-.1a1 1 0 0 1 1 .1l1 1v-2l.3-.5.6-.2c.2 0 .4 0 .6.2l.3.5v2l1-1 .7-.2c.2 0 .4 0 .6.2l.2.6c0 .1 0 .3-.2.5l-2.3 2v5.9l5.8-3 .8-2.7.4-.5h.7c.2 0 .4.1.5.3.1.2.2.4.1.6l-.4 1.3 2-1h.6c.2 0 .4.1.5.3v.6c0 .2-.1.3-.3.4l-2 1 1.6.3.5.4v.6c0 .2-.1.3-.3.4a1 1 0 0 1-.7.1l-3.1-.7-5.9 2.9 5.9 3 3.1-.8h.7l.4.5-.1.6-.5.4-1.5.3 1.9 1c.2 0 .3.2.4.4l-.1.6c-.1.2-.3.3-.5.3a1 1 0 0 1-.7 0l-1.9-1 .4 1.3a.7.7 0 0 1 0 .6l-.3.2-.3.2a1 1 0 0 1-.7-.1.8.8 0 0 1-.2-.2l-.2-.3-.8-2.8-5.8-2.9v5.9l2.3 2 .2.5c0 .2 0 .4-.2.6a1 1 0 0 1-.6.2 1 1 0 0 1-.6-.2l-1.1-1v2l-.3.5a1 1 0 0 1-.6.2Z"/></svg>
